assets/img/topic/angular.svg

<svg height="34" viewBox="0 0 32 34" width="32" xmlns="http://www.w3.org/2000/svg"><g fill="none"><path d="m16 0-15.932 5.644 2.43 20.927 13.502 7.429 13.502-7.429 2.43-20.927" fill="#dd0031"/><path d="m16 0v3.774-.017 30.243l13.502-7.429 2.43-20.927" fill="#c3002f"/><path d="m16 3.757-9.96 22.185h3.714l2.002-4.964h8.454l2.002 4.964h3.713zm2.91 14.161h-5.82l2.91-6.953z" fill="#fff"/></g></svg>

<?xml version="1.0" encoding="UTF-8"?><svg width="32px" height="34px" viewBox="0 0 32 34" version="1.1" xmlns="http://www.w3.org/2000/svg" xmlns:xlink="http://www.w3.org/1999/xlink"><g id="assets" stroke="none" stroke-width="1" fill="none" fill-rule="evenodd"><g transform="translate(-177.000000, -523.000000)" fill-rule="nonzero" id="angular"><g transform="translate(177.000000, 523.000000)"><polyline id="Shape" fill="#DD0031" points="16 0 0.068 5.644 2.498 26.571 16 34 29.502 26.571 31.932 5.644"></polyline><polyline id="Shape" fill="#C3002F" points="16 0 16 3.774 16 3.757 16 34 29.502 26.571 31.932 5.644"></polyline><path d="M16,3.757 L6.04,25.942 L9.754,25.942 L11.756,20.978 L20.21,20.978 L22.212,25.942 L25.925,25.942 L16,3.757 Z M18.91,17.918 L13.09,17.918 L16,10.965 L18.91,17.918 Z" id="Shape" fill="#FFFFFF"></path></g></g></g></svg>
